!!!!SEGMENT: Wil3012-Dessus_le_marche_darras.krn
!!!id: Wil3012
!!!AGN: Chanson
!!!SCT: Seay (1961)
!!!voices: 4
!!!COM: Adrian Willaert
!!!OTL: Dessus le marche d'arras
**kern	**kern	**kern	**kern
*part4	*part3	*part2	*part1
*staff4	*staff3	*staff2	*staff1
*I"Bassus	*I"Tenor	*I"Altus	*I"Superius
*I'B	*I'T	*I'A	*I'S
*clefF4	*clefGv2	*clefGv2	*clefG2
*k[]	*k[]	*k[]	*k[]
*C:	*C:	*C:	*C:
*M2/1	*M2/1	*M2/1	*M2/1
*met(C)	*met(C)	*met(C)	*met(C)
=1	=1	=1	=1
0r	0r	2d	1r
.	.	2d	.
.	.	2.f	2d
.	.	.	2d
.	.	4e	.
=2	=2	=2	=2
0r	0r	2d	2f
.	.	2d	2f
.	.	1c	2g
.	.	.	2g
=3	=3	=3	=3
0r	0r	1r	0a
.	.	4d	.
.	.	4e	.
.	.	2f	.
=4	=4	=4	=4
0r	0r	2e	1r
.	.	2d	.
.	.	2d	4a
.	.	.	4b
.	.	2c	2cc
=5	=5	=5	=5
0r	0r	2d	2b
.	.	2A	2a
.	.	1B	2a
.	.	.	2g#i
=6	=6	=6	=6
2D	1r	0A	0a
2D	.	.	.
2.F	2D	.	.
.	2D	.	.
4E	.	.	.
=7	=7	=7	=7
2D	2F	0r	0r
2D	2F	.	.
1C	2G	.	.
.	2G	.	.
=8	=8	=8	=8
1r	0A	0r	0r
4D	.	.	.
4E	.	.	.
2F	.	.	.
=9	=9	=9	=9
2E	1r	1r	0r
2D	.	.	.
2D	4A	4E	.
.	4B	4F	.
2C	2c	2G	.
=10	=10	=10	=10
2D	2B	2F	0r
2AA	2A	2E	.
1BB	2A	2E	.
.	2G#i	2D	.
=11	=11	=11	=11
1AA	1A	1E	2r
.	.	.	4e
.	.	.	4f
1r	1r	4B	2g
.	.	4c	.
.	.	2d	2f
=12	=12	=12	=12
4E	1r	2c	2e
4F	.	.	.
2G	.	2B	2e
2F	4A	2r	2d
.	4B	.	.
2E	2c	[2G	[2e
=13	=13	=13	=13
2E	2B	2G]	2e]
2D	2d	2F	1a
1E	2c	2E	.
.	2B	[2e	2g#i
=14	=14	=14	=14
1r	1A	4e]	0a
.	.	4d	.
.	.	4c	.
.	.	4B	.
2.A	2.c	1A	.
4A	4c	.	.
=15	=15	=15	=15
2A	2c	2.e	0r
2A	2A	.	.
.	.	4e	.
2G	2B	2e	.
2A	2c	2e	.
=16	=16	=16	=16
2D	2d	2d	2.a
2.A	2.c	2e	.
.	.	.	4a
.	.	4c	2a
4G	4B	4e	.
2F	2A	2d	2a
=17	=17	=17	=17
2E	2B	2e	2g
1F	2A	2c	2a
.	2c	2r	2f
2D	2d	2f	4r
.	.	.	4a
=18	=18	=18	=18
2E	2B	2e	2g
2AA	2A	2c	2a
2r	2.d	2d	2f
2F	.	2f	2a
.	4c	.	.
=19	=19	=19	=19
2G	2B	2e	2g
2A	2A	2c	2e
[1D	1A	2.d	[1f
.	.	8cL	.
.	.	8BJ	.
=20	=20	=20	=20
1D]	4F	1A	1f]
.	4G	.	.
.	2A	.	.
1r	2.A	1r	4f
.	.	.	4g
.	.	.	2a
.	4G	.	.
=21	=21	=21	=21
0r	2F	0r	2.a
.	2E	.	.
.	.	.	4g
.	2D	.	2f
.	2C	.	2e
=22	=22	=22	=22
4F	1r	4A	2d
4G	.	4B	.
2A	.	2c	2c
2.A	4A	2c	4f
.	4B	.	4g
.	[2c	[2F	2a
4G	.	.	.
=23	=23	=23	=23
2F	2c]	2F]	2.a
2E	2c	2G	.
.	.	.	4g
2D	2d	2A	2f
2C	2G	2E	2e
=24	=24	=24	=24
2D	2B	2r	4d
.	.	.	4e
4D	2A	2F	4f
4D	.	.	4g
2GG	2G	2B-i	2e
2BB	[2F	4A	[2d
.	.	4G	.
=25	=25	=25	=25
2AA	4F]	1A	2d]
.	8EL	.	.
.	8DJ	.	.
2AA	2E	.	2c#i
[1D	[1D	1A	1d
=26	=26	=26	=26
1D]	1D]	2.f	2.d
.	.	4e	4d
1r	1r	2d	2f
.	.	2d	2f
=27	=27	=27	=27
1r	1r	2c	2g
.	.	2B	2g
2.c	2A	4A	1a
.	.	4B	.
.	2A	4c	.
4B	.	4d	.
=28	=28	=28	=28
2A	2c	1e	4a
.	.	.	4b
2A	2c	.	2cc
2G	2d	2r	2b
2F	2d	2d	2a
=29	=29	=29	=29
1E	1e	2c	2a
.	.	2B	2g#i
2r	1r	1A	1a
4D	.	.	.
4E	.	.	.
=30	=30	=30	=30
2F	4A	0r	0r
.	4B	.	.
2E	2c	.	.
2D	2B	.	.
2C	2A	.	.
=31	=31	=31	=31
1BB	2A	2r	1r
.	2G#i	4d	.
.	.	4e	.
1AA	1A	2f	4a
.	.	.	4b
.	.	2e	2cc
=32	=32	=32	=32
0r	0r	2d	2b
.	.	2c	2a
.	.	1B	2a
.	.	.	2g#i
=33	=33	=33	=33
1r	1r	1A	1a
3%2F	3%2A	3%2c	3%2a
3F	3A	3c	3a
=34	=34	=34	=34
3%2F	3%2c	3%2f	3%2a
3D	3d	3f	3a
3%2E	3%2B	3%2e	3%2g
3AA	3c	3e	3a
=35	=35	=35	=35
3%2D	3%2A	3%2d	3%2f
3D	3d	3f	3a
3%2E	3%2B	3%2e	3%2g
3AA	3c	3e	3a
=36	=36	=36	=36
3%2D	3%2A	3%2d	3%2f
3D	3d	3f	3a
3%2E	3%2B	3%2e	3%2g
3AA	3c	3e	3e
=37	=37	=37	=37
0D	1A	0d	0f
.	4F	.	.
.	4G	.	.
.	2A	.	.
=38	=38	=38	=38
0r	2.A	0r	4f
.	.	.	4g
.	.	.	2a
.	4G	.	.
.	2F	.	2.a
.	2E	.	.
.	.	.	4g
=39	=39	=39	=39
1r	2D	1r	2f
.	2C	.	2e
4F	1r	4A	2d
4G	.	4B	.
2A	.	2c	2c
=40	=40	=40	=40
2.A	4A	2c	4f
.	4B	.	4g
.	1c	2F	2a
4G	.	.	.
2F	.	2F	2.a
2E	2c	2G	.
.	.	.	4g
=41	=41	=41	=41
2D	2d	2A	2f
2C	2G	2E	2e
2D	2B	2r	4d
.	.	.	4e
4D	2A	2A	4f
4D	.	.	4g
=42	=42	=42	=42
2GG	2G	2B	2e
2BB	2.F	4A	1d
.	.	4G	.
2AA	.	1A	.
.	8EL	.	.
.	8DJ	.	.
2AA	2E	.	2c#i
=43	=43	=43	=43
0D	1D	0A	0d
.	4F	.	.
.	4G	.	.
.	2A	.	.
=44	=44	=44	=44
0r	2.A	0r	4f
.	.	.	4g
.	.	.	2a
.	4G	.	.
.	2F	.	2.a
.	2E	.	.
.	.	.	4g
=45	=45	=45	=45
1r	2D	1r	2f
.	2C	.	2e
4F	1r	4A	2d
4G	.	4B	.
2A	.	2c	2c
=46	=46	=46	=46
2.A	4A	2c	4f
.	4B	.	4g
.	1c	2F	2a
4G	.	.	.
2F	.	2F	2.a
2E	2c	2G	.
.	.	.	4g
=47	=47	=47	=47
2D	2d	2A	2f
2C	2G	2E	2e
2D	2B	2r	4d
.	.	.	4e
4D	2A	2A	4f
4D	.	.	4g
=48	=48	=48	=48
2GG	2G	2B	2e
2BB	2.F	4A	1d
.	.	4G	.
2AA	.	1A	.
.	8EL	.	.
.	8DJ	.	.
2AA	2E	.	2c#i
=49	=49	=49	=49
00Dl	00Dl	00Al	00dl
==	==	==	==
*-	*-	*-	*-
!!!system-decoration: [*]
!!!RDF**kern: i = editorial accidental
!!!RDF**kern: l = terminal long
!!!ENC: Benjamin Ory
!!!END: 2020/12/18
!!!EED: Benjamin Ory
!!!EEV: 2021/04/30
!!!YEC: Copyright 2021 Benjamin Ory, All Rights Reserved
!!!ONB: Translated from MusicXML on 2021/04/30
